assets/img/ods/SDG-15.svg

<svg width="720" height="720" viewBox="0 0 720 720" fill="none" xmlns="http://www.w3.org/2000/svg">
<g clip-path="url(#clip0_342_24)">
<path d="M-1.08008 -1.08008H721.08V721.08H-1.08008V-1.08008Z" fill="#BBBBBB"/>
<path d="M48.7801 88.9299C44.7001 91.1399 33.0001 94.3699 28.8901 96.4099V76.8599C34.3301 74.6499 49.4601 67.3399 54.5601 61.7299H75.1301V199.43H48.7801V88.9299ZM78.5301 159.48H104C104 174.61 105.87 182.48 115.39 182.09C125.39 181.75 125.93 170.53 125.93 152.51C125.93 137.89 124.4 127.51 114.2 127.51C108.08 127.51 104.2 131.76 102.47 139.92H79.8901L81.7601 61.7199H145V84.3399H103.18L101.82 114.77C104.54 111.37 111.51 108.65 119.16 108.14C140.41 106.27 150.78 123.14 150.78 151.32C150.78 180.56 145.17 201.64 113.89 201.64C84.8201 201.64 78.5301 185 78.5301 159.48ZM226.92 61.6299H235.37L242.37 98.8699L248.93 61.6299H257.58L246.98 114.28H237.56L226.92 61.6299ZM261.24 61.6299H270.73V114.28H261.24V61.6299ZM276.91 61.6299H289.32C302.13 61.6299 306 66.7599 306 77.9999V97.1799C306 108.75 302 114.28 289.68 114.28H276.88L276.91 61.6299ZM289.45 107.58C296.02 107.58 296.28 104.07 296.28 97.5099V77.3599C296.28 71.0499 295.63 68.4499 289.28 68.4499H286.42V107.58H289.45ZM318.64 61.6299H328.91L339.44 114.28H330.53L328.45 102.12H319.29L317.14 114.28H308.14L318.64 61.6299ZM327.41 95.9999L323.84 73.8999L320.26 95.9999H327.41ZM234.66 154.71H226.27V147.63H252.47V154.71H244.28V200.28H234.66V154.71ZM255.33 147.63H277.43V154.39H264.88V169.53H274.76V176.23H264.88V193.71H277.56V200.28H255.33V147.63ZM281.19 147.63H293.87C304.4 147.63 310.38 151.01 310.38 161.63C310.38 167.94 308.82 172.36 303.88 174.37L311.23 200.31H301.61L295.3 176.19H290.75V200.31H281.19V147.63ZM293.81 170.18C299.33 170.18 301.35 167.78 301.35 162.12C301.35 156.79 299.85 154.19 294.35 154.19H290.77V170.19L293.81 170.18ZM315.71 147.63H328.38C338.91 147.63 344.9 151.01 344.9 161.63C344.9 167.94 343.34 172.36 338.39 174.37L345.74 200.31H336.12L329.81 176.19H325.26V200.31H315.71V147.63ZM328.32 170.18C333.84 170.18 335.86 167.78 335.86 162.12C335.86 156.79 334.36 154.19 328.86 154.19H325.28V170.19L328.32 170.18ZM350.22 147.63H372.32V154.39H359.78V169.53H369.66V176.23H359.78V193.71H372.45V200.28H350.22V147.63ZM374.79 184.94L383.05 183.31C383.31 189.55 384.8 193.58 389.05 193.58C392.1 193.58 393.4 191.5 393.4 188.64C393.4 184.09 391.06 181.56 387.62 178.57L381 172.78C377.23 169.53 374.89 165.89 374.89 160.04C374.89 151.72 380.09 147.04 388.47 147.04C398.35 147.04 401.15 153.67 401.67 161.34L393.41 162.77C393.22 157.83 392.5 154.13 388.28 154.13C385.42 154.13 383.86 156.27 383.86 159.07C383.86 162.64 385.35 164.59 388.15 167L394.71 172.78C399 176.49 402.58 181.1 402.58 188.06C402.58 195.66 397.25 200.99 389.38 200.99C379.73 201 375.18 195.4 374.79 184.94ZM411.52 154.71H403.13V147.63H429.33V154.71H421.14V200.28H411.52V154.71ZM432.19 147.63H444.86C455.39 147.63 461.37 151.01 461.37 161.63C461.37 167.94 459.81 172.36 454.87 174.37L462.22 200.31H452.6L446.29 176.19H441.74V200.31H432.19V147.63ZM444.8 170.18C450.32 170.18 452.34 167.78 452.34 162.12C452.34 156.79 450.84 154.19 445.34 154.19H441.76V170.19L444.8 170.18ZM466.7 147.63H488.8V154.39H476.26V169.53H486.14V176.23H476.26V193.71H488.93V200.28H466.7V147.63ZM297.69 487.78C298.113 487.783 298.517 487.952 298.815 488.252C299.113 488.552 299.28 488.957 299.28 489.38V542.21C299.283 542.42 299.244 542.628 299.165 542.823C299.086 543.018 298.969 543.195 298.821 543.344C298.673 543.493 298.497 543.611 298.302 543.691C298.108 543.771 297.9 543.811 297.69 543.81H276.31C276.099 543.813 275.889 543.773 275.693 543.694C275.497 543.614 275.319 543.497 275.169 543.348C275.019 543.199 274.901 543.021 274.82 542.826C274.74 542.631 274.699 542.421 274.7 542.21V489.38C274.703 488.955 274.874 488.548 275.175 488.248C275.477 487.948 275.885 487.78 276.31 487.78H297.69ZM532.45 566.5H180.16C179.729 566.508 179.318 566.685 179.016 566.994C178.715 567.303 178.547 567.718 178.55 568.15V589.68C178.551 589.89 178.594 590.098 178.676 590.291C178.757 590.485 178.876 590.661 179.026 590.808C179.175 590.956 179.352 591.073 179.547 591.152C179.742 591.231 179.95 591.271 180.16 591.27H532.45C532.875 591.27 533.282 591.103 533.585 590.806C533.888 590.509 534.062 590.104 534.07 589.68V568.15C534.068 567.718 533.897 567.304 533.595 566.996C533.292 566.688 532.882 566.51 532.45 566.5ZM532.45 609.29H180.16C179.95 609.289 179.742 609.329 179.547 609.408C179.352 609.487 179.175 609.604 179.026 609.751C178.876 609.899 178.757 610.075 178.676 610.268C178.594 610.462 178.551 610.67 178.55 610.88V632.48C178.558 632.903 178.731 633.305 179.032 633.603C179.332 633.9 179.737 634.067 180.16 634.07H532.45C532.874 634.067 533.28 633.9 533.582 633.603C533.885 633.306 534.06 632.903 534.07 632.48V610.88C534.062 610.455 533.888 610.051 533.585 609.754C533.282 609.456 532.875 609.29 532.45 609.29ZM465.42 429.3C461.01 425.86 449.27 417.82 434.94 417.82C424.7 417.82 415.17 421.82 406.65 429.82C406.35 430.104 406.111 430.446 405.949 430.827C405.788 431.207 405.706 431.617 405.71 432.03V434C405.69 434.45 405.769 434.9 405.941 435.316C406.114 435.733 406.377 436.106 406.71 436.41C407.051 436.691 407.452 436.889 407.883 436.988C408.313 437.087 408.761 437.084 409.19 436.98C409.418 436.95 409.643 436.897 409.86 436.82C410.522 436.581 411.123 436.199 411.62 435.7C413.46 434.46 418.51 432.76 425.73 432.76C433.19 432.76 447.85 434.76 462.03 447.98L462.35 448.27C462.751 448.676 463.229 448.998 463.756 449.216C464.284 449.435 464.849 449.545 465.42 449.54C465.978 449.544 466.53 449.437 467.046 449.224C467.561 449.011 468.028 448.697 468.42 448.3L468.7 448C482.95 434.76 497.59 432.76 505.05 432.76C512.32 432.76 517.35 434.46 519.2 435.7C519.767 436.244 520.452 436.651 521.2 436.89C521.871 437.078 522.578 437.102 523.26 436.96C523.899 436.788 524.464 436.409 524.865 435.883C525.267 435.356 525.483 434.712 525.48 434.05V432.35C525.475 431.942 525.389 431.538 525.226 431.164C525.062 430.789 524.826 430.451 524.53 430.17C515.93 421.97 506.3 417.83 495.9 417.83C481.7 417.83 470.01 425.74 465.49 429.33M443.55 288.89C443.177 289.072 442.847 289.333 442.583 289.654C442.319 289.974 442.127 290.348 442.02 290.75L441.66 291.92C441.525 292.367 441.497 292.839 441.577 293.299C441.656 293.759 441.843 294.194 442.12 294.57C442.375 294.914 442.702 295.199 443.079 295.403C443.455 295.607 443.872 295.725 444.3 295.75C444.445 295.779 444.595 295.779 444.74 295.75C445.335 295.738 445.92 295.591 446.45 295.32C447.147 295.15 447.863 295.069 448.58 295.08C450.16 295.08 464.36 295.56 473.75 311.52L473.87 311.75C474.101 312.188 474.421 312.574 474.808 312.884C475.195 313.194 475.642 313.42 476.12 313.55C476.488 313.654 476.868 313.711 477.25 313.72C477.868 313.724 478.476 313.573 479.02 313.28L479.25 313.17C484.126 310.668 489.52 309.343 495 309.3C503.9 309.3 509.71 312.93 511.07 314.45C511.36 314.967 511.759 315.414 512.24 315.76C512.609 315.971 512.994 316.155 513.39 316.31C513.562 316.348 513.735 316.375 513.91 316.39C514.017 316.4 514.124 316.4 514.23 316.39C514.879 316.384 515.509 316.172 516.029 315.783C516.548 315.395 516.931 314.851 517.12 314.23L517.41 313.23C517.5 312.956 517.544 312.668 517.54 312.38C517.547 311.845 517.405 311.319 517.13 310.86C510.29 298.98 500.36 296.5 493.23 296.5C488.898 296.558 484.608 297.363 480.55 298.88C477.32 294.54 469.17 285.57 456.79 285.57C452.185 285.628 447.659 286.773 443.58 288.91M369.11 343.09L369.22 344.67C369.24 345.151 369.378 345.62 369.622 346.035C369.866 346.45 370.209 346.799 370.62 347.05C370.969 347.27 371.36 347.415 371.768 347.477C372.175 347.539 372.592 347.516 372.99 347.41C373.16 347.41 373.36 347.3 373.51 347.25C374.102 347.004 374.624 346.616 375.03 346.12C376.53 345.04 381.35 343.07 388.47 343.07C395.31 343.07 405.72 344.9 416.32 353.61L416.57 353.86C417.329 354.506 418.293 354.861 419.29 354.86H419.55C420.608 354.794 421.599 354.317 422.31 353.53L422.55 353.27C434.29 340.86 446.94 339 453.43 339C458.06 339 461.34 340 462.62 340.68C463.148 341.135 463.775 341.46 464.45 341.63C464.872 341.73 465.308 341.76 465.74 341.72C465.991 341.679 466.238 341.619 466.48 341.54C467.094 341.324 467.62 340.915 467.981 340.374C468.342 339.833 468.517 339.189 468.48 338.54L468.4 337.16C468.373 336.758 468.265 336.366 468.083 336.007C467.901 335.648 467.648 335.329 467.34 335.07C460.34 329.17 452.76 326.2 444.8 326.2C432.41 326.2 422.53 333.52 418.43 337.11C414.68 334.56 405.59 329.31 394.93 329.31C385.55 329.31 377.15 333.2 369.93 340.86C369.651 341.162 369.435 341.516 369.294 341.902C369.153 342.289 369.091 342.699 369.11 343.11M190.84 371.37C190.84 361.246 194.86 351.537 202.015 344.376C209.171 337.215 218.877 333.188 229 333.18C229.83 333.18 230.63 333.25 231.45 333.3C232.009 325.71 234.238 318.337 237.978 311.709C241.718 305.081 246.876 299.361 253.084 294.959C259.293 290.557 266.397 287.581 273.889 286.244C281.381 284.907 289.076 285.243 296.424 287.227C303.771 289.21 310.589 292.793 316.391 297.719C322.192 302.645 326.833 308.792 329.982 315.72C333.131 322.649 334.71 330.188 334.606 337.797C334.502 345.407 332.717 352.9 329.38 359.74C343.267 362.82 355.528 370.919 363.811 382.484C372.094 394.048 375.816 408.263 374.263 422.402C372.71 436.542 365.992 449.61 355.396 459.101C344.801 468.592 331.075 473.837 316.85 473.83C314.52 473.83 239.78 473.38 239.78 473.38C231.798 473.386 223.989 471.054 217.318 466.672C210.647 462.29 205.406 456.049 202.242 448.721C199.079 441.392 198.131 433.298 199.517 425.437C200.903 417.577 204.561 410.294 210.04 404.49C204.204 401.152 199.354 396.331 195.982 390.514C192.61 384.698 190.836 378.093 190.84 371.37Z" fill="white"/>
</g>
<defs>
<clipPath id="clip0_342_24">
<rect width="720" height="720" fill="white"/>
</clipPath>
</defs>
</svg>

<svg xmlns="http://www.w3.org/2000/svg" viewBox="0 0 720 720"><defs><style>.cls-2{fill:#fff}</style></defs><path fill="#56c02b" d="M-1.08-1.08h722.16v722.16H-1.08z" id="goal_background" data-name="goal background"/><g id="ENG_text_graphics" data-name="ENG text &amp; graphics"><path class="cls-2" d="M48.78 88.93C44.7 91.14 33 94.37 28.89 96.41V76.86c5.44-2.21 20.57-9.52 25.67-15.13h20.57v137.7H48.78zM78.53 159.48H104c0 15.13 1.87 23 11.39 22.61 10-.34 10.54-11.56 10.54-29.58 0-14.62-1.53-25-11.73-25-6.12 0-10 4.25-11.73 12.41H79.89l1.87-78.2H145v22.62h-41.82l-1.36 30.43c2.72-3.4 9.69-6.12 17.34-6.63 21.25-1.87 31.62 15 31.62 43.18 0 29.24-5.61 50.32-36.89 50.32-29.07 0-35.36-16.64-35.36-42.16zM226.92 61.63h8.45l7 37.24 6.56-37.24h8.65l-10.6 52.65h-9.42zM261.24 61.63h9.49v52.65h-9.49zM276.91 61.63h12.41C302.13 61.63 306 66.76 306 78v19.18c0 11.57-4 17.1-16.32 17.1h-12.8zm12.54 45.95c6.57 0 6.83-3.51 6.83-10.07V77.36c0-6.31-.65-8.91-7-8.91h-2.86v39.13zM318.64 61.63h10.27l10.53 52.65h-8.91l-2.08-12.16h-9.16l-2.15 12.16h-9zM327.41 96l-3.57-22.1-3.58 22.1zM234.66 154.71h-8.39v-7.08h26.2v7.08h-8.19v45.57h-9.62zM255.33 147.63h22.1v6.76h-12.55v15.14h9.88v6.7h-9.88v17.48h12.68v6.57h-22.23zM281.19 147.63h12.68c10.53 0 16.51 3.38 16.51 14 0 6.31-1.56 10.73-6.5 12.74l7.35 25.94h-9.62l-6.31-24.12h-4.55v24.12h-9.56zm12.62 22.55c5.52 0 7.54-2.4 7.54-8.06 0-5.33-1.5-7.93-7-7.93h-3.58v16zM315.71 147.63h12.67c10.53 0 16.52 3.38 16.52 14 0 6.31-1.56 10.73-6.51 12.74l7.35 25.94h-9.62l-6.31-24.12h-4.55v24.12h-9.55zm12.61 22.55c5.52 0 7.54-2.4 7.54-8.06 0-5.33-1.5-7.93-7-7.93h-3.58v16zM350.22 147.63h22.1v6.76h-12.54v15.14h9.88v6.7h-9.88v17.48h12.67v6.57h-22.23zM374.79 184.94l8.26-1.63c.26 6.24 1.75 10.27 6 10.27 3.05 0 4.35-2.08 4.35-4.94 0-4.55-2.34-7.08-5.78-10.07l-6.62-5.79c-3.77-3.25-6.11-6.89-6.11-12.74 0-8.32 5.2-13 13.58-13 9.88 0 12.68 6.63 13.2 14.3l-8.26 1.43c-.19-4.94-.91-8.64-5.13-8.64-2.86 0-4.42 2.14-4.42 4.94 0 3.57 1.49 5.52 4.29 7.93l6.56 5.78c4.29 3.71 7.87 8.32 7.87 15.28 0 7.6-5.33 12.93-13.2 12.93-9.65.01-14.2-5.59-14.59-16.05zM411.52 154.71h-8.39v-7.08h26.2v7.08h-8.19v45.57h-9.62zM432.19 147.63h12.67c10.53 0 16.51 3.38 16.51 14 0 6.31-1.56 10.73-6.5 12.74l7.35 25.94h-9.62l-6.31-24.12h-4.55v24.12h-9.55zm12.61 22.55c5.52 0 7.54-2.4 7.54-8.06 0-5.33-1.5-7.93-7-7.93h-3.58v16zM466.7 147.63h22.1v6.76h-12.54v15.14h9.88v6.7h-9.88v17.48h12.67v6.57H466.7zM297.69 487.78a1.6 1.6 0 011.59 1.6v52.83a1.58 1.58 0 01-1.59 1.6h-21.38a1.59 1.59 0 01-1.61-1.6v-52.83a1.61 1.61 0 011.61-1.6zM532.45 566.5H180.16a1.64 1.64 0 00-1.61 1.65v21.53a1.6 1.6 0 001.61 1.59h352.29a1.62 1.62 0 001.62-1.59v-21.53a1.66 1.66 0 00-1.62-1.65M532.45 609.29H180.16a1.6 1.6 0 00-1.61 1.59v21.6a1.62 1.62 0 001.61 1.59h352.29a1.63 1.63 0 001.62-1.59v-21.6a1.62 1.62 0 00-1.62-1.59M465.42 429.3c-4.41-3.44-16.15-11.48-30.48-11.48-10.24 0-19.77 4-28.29 12a3 3 0 00-.94 2.21V434a3.07 3.07 0 001 2.41 2.84 2.84 0 002.48.57 3.26 3.26 0 00.67-.16 4.76 4.76 0 001.76-1.12c1.84-1.24 6.89-2.94 14.11-2.94 7.46 0 22.12 2 36.3 15.22l.32.29a4.26 4.26 0 003.07 1.27 4.17 4.17 0 003-1.24l.28-.3c14.25-13.24 28.89-15.24 36.35-15.24 7.27 0 12.3 1.7 14.15 2.94a5.16 5.16 0 002 1.19 4.35 4.35 0 002.06.07 3 3 0 002.22-2.91v-1.7a3.06 3.06 0 00-.95-2.18c-8.6-8.2-18.23-12.34-28.63-12.34-14.2 0-25.89 7.91-30.41 11.5M443.55 288.89a2.9 2.9 0 00-1.53 1.86l-.36 1.17a3 3 0 00.46 2.65 2.92 2.92 0 002.18 1.18 1.12 1.12 0 00.44 0 3.93 3.93 0 001.71-.43 8.46 8.46 0 012.13-.24c1.58 0 15.78.48 25.17 16.44l.12.23a3.61 3.61 0 002.25 1.8 4.53 4.53 0 001.13.17 3.68 3.68 0 001.77-.44l.23-.11A35.1 35.1 0 01495 309.3c8.9 0 14.71 3.63 16.07 5.15a4.07 4.07 0 001.17 1.31 8.64 8.64 0 001.15.55 4 4 0 00.52.08 1.67 1.67 0 00.32 0 3.05 3.05 0 002.89-2.16l.29-1a2.61 2.61 0 00.13-.85 2.88 2.88 0 00-.41-1.52c-6.84-11.88-16.77-14.36-23.9-14.36a37.66 37.66 0 00-12.68 2.38c-3.23-4.34-11.38-13.31-23.76-13.31a29.26 29.26 0 00-13.21 3.34M369.11 343.09l.11 1.58a2.93 2.93 0 001.4 2.38 3 3 0 002.37.36c.17 0 .37-.11.52-.16a3.89 3.89 0 001.52-1.13c1.5-1.08 6.32-3.05 13.44-3.05 6.84 0 17.25 1.83 27.85 10.54l.25.25a4.19 4.19 0 002.72 1h.26a4.06 4.06 0 002.76-1.33l.24-.26c11.74-12.41 24.39-14.27 30.88-14.27 4.63 0 7.91 1 9.19 1.68a4.48 4.48 0 001.83.95 4 4 0 001.29.09 5 5 0 00.74-.18 3 3 0 002-3l-.08-1.38a3 3 0 00-1.06-2.09c-7-5.9-14.58-8.87-22.54-8.87-12.39 0-22.27 7.32-26.37 10.91-3.75-2.55-12.84-7.8-23.5-7.8-9.38 0-17.78 3.89-25 11.55a3.1 3.1 0 00-.82 2.25M190.84 371.37A38.19 38.19 0 01229 333.18c.83 0 1.63.07 2.45.12a51.65 51.65 0 1197.93 26.44 57.73 57.73 0 01-12.53 114.09c-2.33 0-77.07-.45-77.07-.45a40.85 40.85 0 01-29.74-68.89 38.13 38.13 0 01-19.2-33.12z"/></g></svg>
